X:1
T:Portsmouth City
M:4/4
L:1/4
K:Bb
 D| D D/2D/2 D D| D F F E| C C C C| C D E2| B, D B, D| B, D F F| B B G E|\
 F F B, D/2D/2| D D D D| D F F E| C C C C| C D E2| B, D B,/2B,/2 D|\
 B, D F E/2E/2| B/2B/2 B G/2G/2 E| F F B,||
